flaticon/security/fingerprint-scan.svg

<svg xmlns="http://www.w3.org/2000/svg" width="32" height="32" viewBox="0 0 24 24">
    <path d="M.40625 7.933594C.632812 7.933594.8125 7.75.8125 7.527344L.8125 1.015625 7.320312 1.015625C7.546875 1.015625 7.730469.835938 7.730469.609375 7.730469.386719 7.546875.203125 7.320312.203125L0 .203125 0 7.527344C0 7.75.183594 7.933594.40625 7.933594zM23.1875 16.472656C22.960938 16.472656 22.78125 16.65625 22.78125 16.882812L22.78125 22.984375 16.679688 22.984375C16.453125 22.984375 16.269531 23.164062 16.269531 23.390625 16.269531 23.613281 16.453125 23.796875 16.679688 23.796875L23.59375 23.796875 23.59375 16.882812C23.59375 16.65625 23.410156 16.472656 23.1875 16.472656zM16.679688 1.015625L22.78125 1.015625 22.78125 7.527344C22.78125 7.75 22.960938 7.933594 23.1875 7.933594 23.410156 7.933594 23.59375 7.75 23.59375 7.527344L23.59375.203125 16.679688.203125C16.453125.203125 16.269531.386719 16.269531.609375 16.269531.835938 16.453125 1.015625 16.679688 1.015625zM7.320312 22.984375L.8125 22.984375.8125 16.882812C.8125 16.65625.632812 16.472656.40625 16.472656.183594 16.472656 0 16.65625 0 16.882812L0 23.796875 7.320312 23.796875C7.546875 23.796875 7.730469 23.613281 7.730469 23.390625 7.730469 23.164062 7.546875 22.984375 7.320312 22.984375zM12.535156 17.6875C12.535156 17.6875 12.539062 17.6875 12.542969 17.6875 12.769531 17.683594 12.945312 17.496094 12.941406 17.273438 12.933594 16.988281 12.925781 16.714844 12.914062 16.453125 12.902344 16.226562 12.71875 16.046875 12.488281 16.0625 12.265625 16.074219 12.089844 16.261719 12.101562 16.488281 12.109375 16.742188 12.121094 17.011719 12.125 17.292969 12.132812 17.511719 12.3125 17.6875 12.535156 17.6875zM12.402344 15.253906C12.414062 15.253906 12.429688 15.253906 12.441406 15.25 12.664062 15.230469 12.828125 15.035156 12.808594 14.8125 12.785156 14.515625 12.753906 14.242188 12.726562 13.988281 12.699219 13.765625 12.492188 13.609375 12.273438 13.632812 12.050781 13.660156 11.890625 13.863281 11.917969 14.085938 11.945312 14.328125 11.972656 14.59375 12 14.882812 12.015625 15.09375 12.195312 15.253906 12.402344 15.253906zM12.550781 18.503906C12.339844 18.496094 12.140625 18.683594 12.140625 18.90625 12.140625 19.167969 12.136719 19.4375 12.132812 19.714844 12.125 19.941406 12.304688 20.125 12.53125 20.128906 12.53125 20.128906 12.535156 20.128906 12.539062 20.128906 12.757812 20.128906 12.941406 19.953125 12.945312 19.730469 12.949219 19.449219 12.953125 19.175781 12.953125 18.914062 12.957031 18.6875 12.773438 18.503906 12.550781 18.503906zM3.042969 12.355469C2.816406 12.371094 2.648438 12.566406 2.667969 12.792969 2.6875 13.066406 2.714844 13.34375 2.753906 13.625 2.78125 13.828125 2.957031 13.976562 3.15625 13.976562 3.175781 13.976562 3.195312 13.976562 3.214844 13.972656 3.4375 13.941406 3.59375 13.738281 3.5625 13.515625 3.523438 13.25 3.496094 12.988281 3.476562 12.730469 3.460938 12.507812 3.265625 12.339844 3.042969 12.355469zM3.074219 15.265625C3.140625 15.527344 3.210938 15.796875 3.292969 16.066406 3.34375 16.242188 3.507812 16.359375 3.683594 16.359375 3.722656 16.359375 3.761719 16.351562 3.800781 16.339844 4.015625 16.277344 4.136719 16.050781 4.074219 15.835938 3.996094 15.574219 3.925781 15.320312 3.863281 15.066406 3.808594 14.851562 3.585938 14.71875 3.371094 14.773438 3.152344 14.824219 3.019531 15.046875 3.074219 15.265625zM18.84375 17.683594C18.847656 17.683594 18.847656 17.683594 18.851562 17.683594 19.074219 17.683594 19.253906 17.507812 19.257812 17.285156 19.265625 17.003906 19.273438 16.734375 19.277344 16.46875 19.28125 16.246094 19.101562 16.058594 18.878906 16.054688 18.640625 16.054688 18.46875 16.230469 18.464844 16.457031 18.457031 16.714844 18.453125 16.988281 18.445312 17.265625 18.441406 17.492188 18.617188 17.679688 18.84375 17.683594zM18.878906 15.242188C18.878906 15.242188 18.882812 15.242188 18.882812 15.242188 19.105469 15.242188 19.289062 15.054688 19.285156 14.832031 19.28125 14.546875 19.277344 14.273438 19.269531 14.011719 19.261719 13.785156 19.070312 13.609375 18.847656 13.617188 18.625 13.625 18.449219 13.8125 18.457031 14.035156 18.464844 14.292969 18.46875 14.5625 18.472656 14.839844 18.472656 15.0625 18.65625 15.242188 18.878906 15.242188zM5.523438 18.445312C5.523438 18.699219 5.519531 18.96875 5.511719 19.25 5.507812 19.476562 5.6875 19.660156 5.910156 19.664062 5.914062 19.664062 5.917969 19.664062 5.917969 19.664062 6.140625 19.664062 6.320312 19.488281 6.328125 19.265625 6.332031 18.980469 6.335938 18.707031 6.335938 18.449219 6.339844 18.222656 6.15625 18.039062 5.933594 18.039062 5.707031 18.054688 5.523438 18.21875 5.523438 18.445312zM5.410156 13.207031C5.195312 13.265625 5.066406 13.488281 5.125 13.707031 5.1875 13.929688 5.257812 14.195312 5.304688 14.460938 5.339844 14.65625 5.511719 14.796875 5.707031 14.796875 5.730469 14.796875 5.753906 14.792969 5.777344 14.789062 6 14.75 6.144531 14.539062 6.105469 14.316406 6.054688 14.019531 5.976562 13.730469 5.910156 13.488281 5.851562 13.273438 5.628906 13.144531 5.410156 13.207031zM5.847656 15.601562C5.625 15.613281 5.453125 15.808594 5.46875 16.03125 5.484375 16.273438 5.496094 16.542969 5.503906 16.832031 5.511719 17.050781 5.691406 17.226562 5.910156 17.226562 5.914062 17.226562 5.917969 17.226562 5.925781 17.226562 6.148438 17.21875 6.324219 17.03125 6.316406 16.804688 6.308594 16.507812 6.292969 16.234375 6.28125 15.980469 6.265625 15.757812 6.070312 15.582031 5.847656 15.601562zM7.890625 16.589844C7.667969 16.597656 7.488281 16.785156 7.496094 17.007812 7.5 17.261719 7.507812 17.53125 7.507812 17.8125 7.507812 18.039062 7.691406 18.21875 7.914062 18.21875 7.914062 18.21875 7.917969 18.21875 7.917969 18.21875 8.140625 18.214844 8.324219 18.03125 8.320312 17.808594 8.320312 17.519531 8.316406 17.246094 8.308594 16.988281 8.300781 16.761719 8.117188 16.570312 7.890625 16.589844zM7.820312 15.78125C7.828125 15.78125 7.839844 15.78125 7.851562 15.78125 8.074219 15.761719 8.242188 15.566406 8.226562 15.339844 8.199219 15.027344 8.171875 14.753906 8.140625 14.515625 8.113281 14.292969 7.910156 14.136719 7.6875 14.160156 7.464844 14.1875 7.304688 14.390625 7.335938 14.613281 7.363281 14.84375 7.390625 15.105469 7.414062 15.40625 7.429688 15.617188 7.609375 15.78125 7.820312 15.78125zM7.910156 19.03125C7.6875 19.019531 7.5 19.203125 7.496094 19.429688 7.488281 19.6875 7.480469 19.957031 7.472656 20.238281 7.460938 20.460938 7.636719 20.652344 7.863281 20.660156 7.867188 20.660156 7.871094 20.660156 7.878906 20.660156 8.097656 20.660156 8.277344 20.484375 8.285156 20.265625 8.292969 19.984375 8.300781 19.710938 8.308594 19.449219 8.3125 19.222656 8.136719 19.035156 7.910156 19.03125zM15.429688 9.414062C15.507812 9.539062 15.640625 9.609375 15.773438 9.609375 15.847656 9.609375 15.921875 9.585938 15.988281 9.546875 16.179688 9.425781 16.238281 9.175781 16.121094 8.984375 15.964844 8.738281 15.785156 8.5 15.589844 8.28125 15.4375 8.113281 15.183594 8.097656 15.015625 8.25 14.847656 8.398438 14.835938 8.65625 14.984375 8.824219 15.148438 9.007812 15.296875 9.207031 15.429688 9.414062zM13.136719 7.628906C13.371094 7.703125 13.601562 7.800781 13.820312 7.914062 13.882812 7.949219 13.945312 7.960938 14.011719 7.960938 14.15625 7.960938 14.296875 7.882812 14.371094 7.746094 14.476562 7.546875 14.398438 7.300781 14.199219 7.195312 13.9375 7.058594 13.664062 6.941406 13.386719 6.851562 13.171875 6.785156 12.941406 6.902344 12.875 7.117188 12.804688 7.332031 12.921875 7.558594 13.136719 7.628906zM16.855469 17.679688C16.859375 17.679688 16.863281 17.679688 16.867188 17.679688 17.089844 17.679688 17.269531 17.503906 17.273438 17.28125 17.28125 17 17.289062 16.726562 17.292969 16.464844 17.296875 16.242188 17.117188 16.054688 16.894531 16.050781 16.890625 16.050781 16.886719 16.050781 16.886719 16.050781 16.664062 16.050781 16.484375 16.230469 16.476562 16.453125 16.472656 16.710938 16.46875 16.980469 16.460938 17.261719 16.457031 17.488281 16.632812 17.671875 16.855469 17.679688zM7.722656 9.613281C7.785156 9.652344 7.855469 9.667969 7.921875 9.667969 8.066406 9.667969 8.203125 9.59375 8.277344 9.460938 8.402344 9.246094 8.542969 9.042969 8.699219 8.855469 8.84375 8.683594 8.824219 8.429688 8.652344 8.285156 8.480469 8.136719 8.222656 8.160156 8.078125 8.332031 7.890625 8.554688 7.71875 8.800781 7.570312 9.058594 7.460938 9.253906 7.527344 9.503906 7.722656 9.613281zM10.851562 7.535156C10.878906 7.535156 10.910156 7.53125 10.9375 7.523438 11.179688 7.472656 11.425781 7.441406 11.671875 7.429688 11.898438 7.421875 12.074219 7.234375 12.0625 7.007812 12.054688 6.785156 11.875 6.613281 11.640625 6.617188 11.34375 6.628906 11.050781 6.667969 10.765625 6.730469 10.542969 6.777344 10.40625 6.996094 10.453125 7.214844 10.496094 7.40625 10.664062 7.535156 10.851562 7.535156zM16.398438 19.246094C16.390625 19.46875 16.566406 19.65625 16.792969 19.664062 16.796875 19.664062 16.800781 19.664062 16.804688 19.664062 17.023438 19.664062 17.203125 19.492188 17.210938 19.273438L17.226562 18.910156C17.230469 18.6875 17.054688 18.5 16.832031 18.492188 16.601562 18.484375 16.417969 18.660156 16.410156 18.882812zM16.894531 15.238281C16.894531 15.238281 16.898438 15.238281 16.898438 15.238281 17.125 15.238281 17.304688 15.050781 17.300781 14.828125 17.300781 14.539062 17.292969 14.265625 17.285156 14.003906 17.277344 13.78125 17.078125 13.59375 16.863281 13.613281 16.640625 13.621094 16.464844 13.808594 16.472656 14.03125 16.480469 14.289062 16.484375 14.554688 16.488281 14.835938 16.492188 15.058594 16.671875 15.238281 16.894531 15.238281zM14.867188 18.191406C14.863281 18.191406 14.863281 18.191406 14.863281 18.191406 14.640625 18.191406 14.457031 18.371094 14.457031 18.59375 14.453125 18.855469 14.449219 19.125 14.445312 19.402344 14.441406 19.628906 14.621094 19.8125 14.84375 19.816406 14.847656 19.816406 14.847656 19.816406 14.851562 19.816406 15.074219 19.816406 15.253906 19.640625 15.257812 19.417969 15.265625 19.136719 15.269531 18.863281 15.269531 18.601562 15.269531 18.375 15.089844 18.191406 14.867188 18.191406zM14.851562 17.351562C14.851562 17.351562 14.855469 17.351562 14.859375 17.351562 15.082031 17.34375 15.261719 17.160156 15.257812 16.933594 15.253906 16.757812 15.246094 16.585938 15.242188 16.417969 15.234375 16.191406 15.050781 16.019531 14.820312 16.023438 14.597656 16.03125 14.421875 16.21875 14.429688 16.445312 14.433594 16.609375 14.441406 16.777344 14.445312 16.953125 14.449219 17.175781 14.628906 17.351562 14.851562 17.351562zM14.746094 15.210938C14.757812 15.210938 14.769531 15.210938 14.777344 15.210938 15.003906 15.195312 15.171875 15 15.152344 14.773438 15.128906 14.480469 15.105469 14.207031 15.078125 13.953125 15.054688 13.730469 14.855469 13.570312 14.628906 13.589844 14.40625 13.613281 14.246094 13.816406 14.269531 14.039062 14.292969 14.285156 14.320312 14.554688 14.339844 14.835938 14.359375 15.050781 14.535156 15.210938 14.746094 15.210938zM10.214844 17.171875C9.988281 17.175781 9.8125 17.363281 9.816406 17.589844 9.820312 17.84375 9.824219 18.113281 9.824219 18.394531 9.824219 18.617188 10.007812 18.800781 10.230469 18.800781 10.230469 18.800781 10.234375 18.800781 10.234375 18.800781 10.457031 18.800781 10.640625 18.617188 10.636719 18.390625 10.636719 18.105469 10.632812 17.832031 10.628906 17.570312 10.625 17.347656 10.441406 17.179688 10.214844 17.171875zM10.226562 19.613281C10.003906 19.589844 9.8125 19.785156 9.808594 20.011719 9.800781 20.273438 9.792969 20.542969 9.785156 20.820312 9.777344 21.042969 9.953125 21.230469 10.175781 21.238281 10.183594 21.238281 10.1875 21.238281 10.191406 21.238281 10.410156 21.238281 10.589844 21.066406 10.597656 20.847656 10.609375 20.566406 10.617188 20.292969 10.621094 20.03125 10.628906 19.804688 10.449219 19.617188 10.226562 19.613281zM10.160156 16.359375C10.167969 16.359375 10.175781 16.359375 10.183594 16.359375 10.40625 16.347656 10.578125 16.152344 10.566406 15.929688 10.546875 15.636719 10.527344 15.363281 10.507812 15.109375 10.488281 14.882812 10.289062 14.71875 10.066406 14.738281 9.84375 14.757812 9.675781 14.953125 9.695312 15.175781 9.714844 15.425781 9.734375 15.691406 9.753906 15.976562 9.765625 16.195312 9.945312 16.359375 10.160156 16.359375zM9.972656 13.929688C10.195312 13.894531 10.347656 13.683594 10.308594 13.464844 10.246094 13.070312 10.1875 12.792969 10.144531 12.632812 10.09375 12.414062 9.875 12.28125 9.652344 12.335938 9.4375 12.390625 9.300781 12.609375 9.355469 12.828125 9.390625 12.972656 9.449219 13.226562 9.507812 13.59375 9.539062 13.792969 9.710938 13.933594 9.910156 13.933594 9.929688 13.933594 9.953125 13.933594 9.972656 13.929688zM9.972656 13.929688"/>
    <path d="M 23.59375 11.1875 L 21.011719 11.1875 C 20.832031 10.089844 20.554688 9.121094 20.140625 8.140625 C 18.726562 4.800781 15.46875 2.644531 11.84375 2.644531 C 10.648438 2.644531 9.480469 2.878906 8.375 3.339844 C 7.765625 3.59375 7.1875 3.898438 6.660156 4.238281 C 6.472656 4.363281 6.417969 4.613281 6.542969 4.800781 C 6.664062 4.992188 6.917969 5.042969 7.105469 4.921875 C 7.589844 4.605469 8.125 4.324219 8.691406 4.089844 C 9.695312 3.671875 10.757812 3.457031 11.84375 3.457031 C 15.144531 3.457031 18.105469 5.421875 19.390625 8.457031 C 19.761719 9.335938 20.015625 10.207031 20.183594 11.1875 L 18.984375 11.1875 C 18.882812 10.652344 18.761719 10.144531 18.597656 9.660156 C 17.6875 6.984375 14.773438 4.726562 12.101562 4.632812 C 11.078125 4.597656 10.082031 4.777344 9.140625 5.171875 C 6.664062 6.203125 5.011719 8.535156 4.839844 11.1875 L 3.476562 11.1875 C 3.621094 9.105469 4.386719 7.355469 5.773438 5.988281 C 5.933594 5.828125 5.9375 5.570312 5.777344 5.410156 C 5.621094 5.25 5.363281 5.25 5.203125 5.40625 C 3.679688 6.910156 2.8125 8.902344 2.664062 11.1875 L 0.40625 11.1875 C 0.183594 11.1875 0 11.367188 0 11.59375 C 0 11.816406 0.183594 12 0.40625 12 L 3.03125 12 C 3.035156 12 3.039062 12 3.042969 12 L 4.828125 12 C 4.828125 12.007812 4.828125 12.011719 4.828125 12.019531 C 4.839844 12.238281 5.019531 12.40625 5.234375 12.40625 C 5.242188 12.40625 5.25 12.40625 5.257812 12.40625 C 5.472656 12.394531 5.636719 12.214844 5.636719 12 L 6.941406 12 C 6.910156 12.058594 6.894531 12.125 6.898438 12.199219 C 6.921875 12.484375 6.964844 12.777344 7.027344 13.058594 C 7.070312 13.25 7.238281 13.378906 7.425781 13.378906 C 7.453125 13.378906 7.484375 13.375 7.511719 13.367188 C 7.734375 13.320312 7.871094 13.101562 7.820312 12.882812 C 7.765625 12.636719 7.730469 12.386719 7.710938 12.136719 C 7.707031 12.085938 7.691406 12.042969 7.671875 12 L 9.519531 12 C 9.523438 12 9.527344 12 9.53125 12 L 11.53125 12 C 11.566406 12.117188 11.613281 12.285156 11.664062 12.519531 C 11.707031 12.710938 11.875 12.839844 12.0625 12.839844 C 12.089844 12.839844 12.121094 12.835938 12.148438 12.832031 C 12.367188 12.78125 12.507812 12.566406 12.457031 12.347656 C 12.429688 12.214844 12.402344 12.097656 12.375 12 L 13.941406 12 C 13.976562 12.148438 14.011719 12.300781 14.042969 12.464844 C 14.078125 12.65625 14.25 12.792969 14.441406 12.792969 C 14.464844 12.792969 14.492188 12.789062 14.515625 12.785156 C 14.738281 12.742188 14.882812 12.53125 14.839844 12.308594 C 14.820312 12.203125 14.796875 12.101562 14.777344 12 L 16.292969 12 C 16.316406 12.144531 16.335938 12.289062 16.355469 12.445312 C 16.378906 12.652344 16.554688 12.804688 16.757812 12.804688 C 16.773438 12.804688 16.789062 12.800781 16.808594 12.800781 C 17.03125 12.773438 17.1875 12.570312 17.160156 12.347656 C 17.148438 12.226562 17.132812 12.113281 17.113281 12 L 18.292969 12 C 18.3125 12.148438 18.335938 12.289062 18.351562 12.441406 C 18.375 12.652344 18.550781 12.808594 18.757812 12.808594 C 18.769531 12.808594 18.785156 12.804688 18.800781 12.804688 C 19.023438 12.78125 19.183594 12.582031 19.160156 12.359375 C 19.148438 12.234375 19.128906 12.121094 19.113281 12 L 20.300781 12 C 20.3125 12.117188 20.328125 12.230469 20.339844 12.351562 C 20.359375 12.5625 20.539062 12.71875 20.746094 12.71875 C 20.757812 12.71875 20.769531 12.71875 20.785156 12.71875 C 21.007812 12.695312 21.171875 12.496094 21.148438 12.273438 C 21.140625 12.179688 21.128906 12.09375 21.117188 12 L 23.59375 12 C 23.816406 12 24 11.820312 24 11.59375 C 24 11.371094 23.816406 11.1875 23.59375 11.1875 Z M 9.453125 5.921875 C 10.285156 5.574219 11.164062 5.414062 12.074219 5.445312 C 14.394531 5.53125 17.03125 7.578125 17.824219 9.921875 C 17.960938 10.324219 18.066406 10.746094 18.15625 11.1875 L 16.960938 11.1875 C 16.914062 10.976562 16.863281 10.773438 16.804688 10.574219 C 16.738281 10.359375 16.511719 10.238281 16.296875 10.304688 C 16.082031 10.367188 15.960938 10.59375 16.023438 10.808594 C 16.0625 10.933594 16.097656 11.058594 16.128906 11.1875 L 14.566406 11.1875 C 14.472656 10.882812 14.394531 10.695312 14.351562 10.589844 C 13.925781 9.582031 12.941406 8.929688 11.84375 8.929688 C 11.484375 8.929688 11.128906 9 10.796875 9.140625 C 9.933594 9.5 9.320312 10.28125 9.164062 11.1875 L 7.730469 11.1875 C 7.742188 11.078125 7.757812 10.964844 7.777344 10.859375 C 7.816406 10.636719 7.671875 10.425781 7.449219 10.386719 C 7.230469 10.34375 7.015625 10.492188 6.976562 10.710938 C 6.945312 10.867188 6.925781 11.027344 6.910156 11.1875 L 5.652344 11.1875 C 5.824219 8.867188 7.28125 6.828125 9.453125 5.921875 Z M 10 11.1875 C 10.144531 10.609375 10.550781 10.125 11.109375 9.890625 C 11.34375 9.792969 11.589844 9.742188 11.84375 9.742188 C 12.613281 9.742188 13.304688 10.199219 13.605469 10.910156 C 13.628906 10.96875 13.664062 11.058594 13.710938 11.1875 Z M 10 11.1875"/>
</svg>

<svg xmlns="http://www.w3.org/2000/svg" width="32" height="32" viewBox="0 0 24 24">
    <path d="M.406 7.934a.406.406 0 0 0 .406-.407V1.016H7.32a.407.407 0 1 0 0-.813H0v7.324c0 .223.184.407.406.407zm0 0M23.188 16.473a.407.407 0 0 0-.407.41v6.101H16.68a.407.407 0 1 0 0 .813h6.914v-6.914a.41.41 0 0 0-.407-.41zm0 0M16.68 1.016h6.101v6.511a.406.406 0 1 0 .813 0V.203H16.68a.407.407 0 0 0 0 .813zm0 0M7.32 22.984H.812v-6.101a.407.407 0 1 0-.812 0v6.914h7.32a.407.407 0 0 0 0-.813zm0 0M12.535 17.688h.008a.406.406 0 0 0 .398-.415 47.903 47.903 0 0 0-.027-.82.402.402 0 0 0-.426-.39.406.406 0 0 0-.386.425c.007.254.02.524.023.805a.41.41 0 0 0 .41.395zm0 0M12.402 15.254c.012 0 .028 0 .04-.004a.403.403 0 0 0 .367-.438c-.024-.296-.055-.57-.082-.824a.413.413 0 0 0-.454-.355.408.408 0 0 0-.355.453c.027.242.055.508.082.797.016.21.195.37.402.37zm0 0M12.55 18.504a.41.41 0 0 0-.41.402c0 .262-.003.532-.007.809a.401.401 0 0 0 .398.414h.008a.407.407 0 0 0 .406-.399c.004-.28.008-.554.008-.816a.404.404 0 0 0-.402-.41zm0 0M3.043 12.355a.402.402 0 0 0-.375.438c.02.273.047.55.086.832a.408.408 0 0 0 .402.352c.02 0 .04 0 .059-.004a.405.405 0 0 0 .348-.457c-.04-.266-.067-.528-.086-.786a.406.406 0 0 0-.434-.375zm0 0M3.074 15.266c.067.261.137.53.219.8.05.176.215.293.39.293a.41.41 0 0 0 .118-.02.406.406 0 0 0 .273-.503 16.32 16.32 0 0 1-.21-.77.408.408 0 0 0-.79.2zm0 0M18.844 17.684h.008a.404.404 0 0 0 .406-.399c.008-.281.015-.55.02-.816a.409.409 0 0 0-.4-.414.402.402 0 0 0-.413.402c-.008.258-.012.531-.02.809a.407.407 0 0 0 .399.418zm0 0M18.879 15.242h.004a.406.406 0 0 0 .402-.41 51.529 51.529 0 0 0-.015-.82.41.41 0 0 0-.422-.395.405.405 0 0 0-.391.418c.008.258.012.527.016.805 0 .223.183.402.406.402zm0 0M5.523 18.445c0 .254-.003.524-.011.805a.406.406 0 0 0 .398.414h.008a.41.41 0 0 0 .41-.398c.004-.286.008-.559.008-.817a.404.404 0 0 0-.402-.41c-.227.016-.41.18-.41.406zm0 0M5.41 13.207a.408.408 0 0 0-.285.5c.063.223.133.488.18.754a.41.41 0 0 0 .472.328.405.405 0 0 0 .328-.473 8.681 8.681 0 0 0-.195-.828.403.403 0 0 0-.5-.281zm0 0M5.848 15.602a.403.403 0 0 0-.38.43c.016.241.028.511.036.8a.409.409 0 0 0 .406.395h.016a.406.406 0 0 0 .39-.422c-.007-.297-.023-.57-.035-.825a.407.407 0 0 0-.433-.378zm0 0M7.89 16.59a.409.409 0 0 0-.394.418c.004.254.012.523.012.805 0 .226.183.406.406.406h.004a.408.408 0 0 0 .402-.41c0-.29-.004-.563-.011-.82-.008-.227-.192-.419-.418-.4zm0 0M7.82 15.781h.032a.413.413 0 0 0 .375-.441 19.678 19.678 0 0 0-.086-.824.41.41 0 0 0-.454-.356.402.402 0 0 0-.351.453c.027.23.055.492.078.793.016.211.195.375.406.375zm0 0M7.91 19.031a.401.401 0 0 0-.414.399l-.023.808a.404.404 0 0 0 .39.422h.016a.409.409 0 0 0 .406-.394l.024-.817a.407.407 0 0 0-.399-.418zm0 0M15.43 9.414a.41.41 0 0 0 .343.195.411.411 0 0 0 .348-.625 5.442 5.442 0 0 0-.531-.703.407.407 0 0 0-.605.543c.163.184.312.383.445.59zm0 0M13.137 7.629c.234.074.465.172.683.285a.41.41 0 0 0 .55-.168.408.408 0 0 0-.17-.55 5.276 5.276 0 0 0-.813-.344.408.408 0 0 0-.25.777zm0 0M16.855 17.68h.012a.404.404 0 0 0 .406-.399c.008-.281.016-.554.02-.816a.409.409 0 0 0-.398-.414h-.008a.414.414 0 0 0-.41.402c-.004.258-.008.527-.016.809a.409.409 0 0 0 .394.418zm0 0M7.723 9.613a.404.404 0 0 0 .555-.152c.124-.215.265-.418.421-.606a.403.403 0 0 0-.047-.57.404.404 0 0 0-.574.047c-.187.223-.36.469-.508.727a.408.408 0 0 0 .153.554zm0 0M10.852 7.535a.325.325 0 0 0 .085-.012c.243-.05.489-.082.735-.093a.401.401 0 0 0 .39-.422.404.404 0 0 0-.421-.39c-.297.01-.59.05-.875.112a.406.406 0 0 0 .086.805zm0 0M16.398 19.246a.406.406 0 0 0 .395.418h.012a.405.405 0 0 0 .406-.39l.016-.364a.411.411 0 0 0-.395-.418.404.404 0 0 0-.422.39zm0 0M16.895 15.238h.003a.403.403 0 0 0 .403-.41c0-.289-.008-.562-.016-.824-.008-.223-.207-.41-.422-.39a.405.405 0 0 0-.39.417c.007.258.011.524.015.805a.408.408 0 0 0 .407.402zm0 0M14.867 18.191h-.004a.405.405 0 0 0-.406.403l-.012.808a.406.406 0 0 0 .399.414h.008a.404.404 0 0 0 .406-.398c.008-.281.012-.555.012-.816 0-.227-.18-.41-.403-.41zm0 0M14.852 17.352h.007a.412.412 0 0 0 .399-.418c-.004-.176-.012-.348-.016-.516a.407.407 0 1 0-.812.027c.004.164.011.332.015.508a.404.404 0 0 0 .407.399zm0 0M14.746 15.21h.031a.402.402 0 0 0 .375-.437 30.482 30.482 0 0 0-.074-.82.411.411 0 0 0-.45-.363.408.408 0 0 0-.358.45c.023.245.05.515.07.796.02.215.195.375.406.375zm0 0M10.215 17.172a.407.407 0 0 0-.399.418c.004.254.008.523.008.805 0 .222.184.406.406.406h.004a.404.404 0 0 0 .403-.41c0-.286-.004-.559-.008-.82-.004-.223-.188-.391-.414-.4zm0 0M10.227 19.613c-.223-.023-.415.172-.418.399l-.024.808a.405.405 0 0 0 .39.418h.016a.405.405 0 0 0 .407-.39c.011-.282.02-.555.023-.817a.404.404 0 0 0-.394-.418zm0 0M10.16 16.36h.024a.41.41 0 0 0 .382-.43c-.02-.293-.039-.567-.058-.82a.407.407 0 0 0-.813.066c.02.25.04.515.059.8a.404.404 0 0 0 .406.383zm0 0M9.973 13.93a.403.403 0 0 0 .336-.465 8.771 8.771 0 0 0-.164-.832.402.402 0 0 0-.493-.297.408.408 0 0 0-.297.492c.036.145.094.399.153.766.031.199.203.34.402.34.02 0 .043 0 .063-.004zm0 0"/>
    <path d="M23.594 11.188h-2.582a13.043 13.043 0 0 0-.871-3.047 8.994 8.994 0 0 0-8.297-5.496 8.972 8.972 0 0 0-3.469.695 10.96 10.96 0 0 0-1.715.898.405.405 0 0 0-.117.563.405.405 0 0 0 .562.12 9.672 9.672 0 0 1 1.586-.831 8.17 8.17 0 0 1 3.153-.633c3.3 0 6.261 1.965 7.547 5 .37.879.625 1.75.793 2.73h-1.2a11.337 11.337 0 0 0-.386-1.527c-.91-2.676-3.825-4.933-6.496-5.027a6.984 6.984 0 0 0-2.961.539 6.998 6.998 0 0 0-4.301 6.016H3.477c.144-2.083.91-3.833 2.296-5.2a.408.408 0 0 0-.57-.582C3.68 6.91 2.813 8.902 2.664 11.188H.406a.406.406 0 1 0 0 .812h4.422v.02a.407.407 0 0 0 .406.386h.024A.403.403 0 0 0 5.637 12H6.94a.374.374 0 0 0-.043.2c.024.284.067.577.13.859.042.191.21.32.398.32a.325.325 0 0 0 .086-.012.401.401 0 0 0 .308-.484 5.368 5.368 0 0 1-.11-.746.396.396 0 0 0-.038-.137h3.859c.035.117.082.285.133.52a.408.408 0 0 0 .484.312.406.406 0 0 0 .309-.484 5.242 5.242 0 0 0-.082-.348h1.566c.036.148.07.3.102.465a.406.406 0 1 0 .797-.156c-.02-.106-.043-.207-.063-.309h1.516c.023.145.043.29.062.445.024.207.2.36.403.36.015 0 .031-.004.05-.004a.405.405 0 0 0 .352-.453 4.67 4.67 0 0 0-.047-.348h1.18c.02.148.043.29.059.441.023.211.199.368.406.368.012 0 .027-.004.043-.004a.404.404 0 0 0 .36-.446c-.013-.125-.032-.238-.048-.359h1.188c.012.117.027.23.039.352.02.21.2.367.406.367h.04a.407.407 0 0 0 .362-.446c-.007-.093-.02-.18-.03-.273h2.476a.406.406 0 1 0 0-.813zM9.454 5.921a6.19 6.19 0 0 1 2.62-.477c2.32.086 4.957 2.133 5.75 4.477.137.402.242.824.332 1.265h-1.195a9.372 9.372 0 0 0-.156-.613.406.406 0 0 0-.508-.27.406.406 0 0 0-.274.505c.04.125.075.25.106.379h-1.563c-.093-.305-.171-.493-.214-.598a2.716 2.716 0 0 0-3.555-1.45 2.724 2.724 0 0 0-1.633 2.047H7.73a4.42 4.42 0 0 1 .047-.328.405.405 0 0 0-.328-.472.404.404 0 0 0-.472.324c-.032.156-.051.316-.067.476H5.652a6.199 6.199 0 0 1 3.801-5.265zM10 11.188a1.905 1.905 0 0 1 3.605-.278c.024.059.06.149.106.277zm0 0"/>
</svg>
